X:554
T:
S:Efter husbonden Alfred Olsson, Petsarve i Ardre.
R:vals
O:Gotland, Ardre
M:3/4
L:1/8
K:D
(fe)|(ed) (dF) (Ad)|(dc) (cE) (ed)|(dc) (cE) (Ac)|e2 d2 (fe)|
(ed) (dF) (Ad)|(dc) (cE) (ed)|(dc) (cA) (ce)|d4::F2|
E2 g2 (fe)|(ed) (dF) (Ad)|(dc) (cE) (Ac)|(ed) (dA) (FA)|
E2 g2 (fe)|(ed) (dF) (Ad)|(dc) (cA) (ce)|d4::f2|
(eg) (be) (gb)|(df) (ad) (fa)|(Ac) (eA) (ce)|(df) (ad) (fa)|
(eg) (be) (gb)|(df)(ad) (fa)|(Ac) (eA) (de)|d4:|

